X:2
T:Dessous le rosier blanc
R:hanter dro
O:Bretagne
Z:id:hn-hanterdro-2
M:3/4
L:1/8
K:Bm
Bd/c/ BA B2 | dc/d/ ec dc :|
|: Bc/d/ ec dB | dc/B/ AB c2 |
Bc/d/ ec dB | dc/B/ cd B2 :|
W:Dessous le rosier blanc, la belle s'y prom\`ene :|
W:|: Blanche comme la neige, belle comme le jour.
W:Trois jeunes capitaines, tous trois lui font la cour. :|
W:
W:Le plus jeune d'entre eux, la pris dans sa main blanche 
W:- Montez, montez la belle, sur mon beau cheval gris 
W:En ville je vous emm\`ene, dans une h\^otellerie 
W:
W:A l'heure du souper, la table \'etait mise 
W:- Mangez, mangez la belle, soignez votre app\'etit 
W:Avec un capitaine, vous passerez la nuit 
W:
W:A l'heure du coucher, la belle tomba morte 
W:- Sonnez, sonnez trompettes, tambours du r\'egiment 
W:Puisque mignonne est morte, a l'\^age de quinze ans 
W:
W:O\`u l'enterrerons nous, cette belle princesse?
W:Dans le jardin d'son p\`ere, sous les rosiers fleuris
W:ferons dire des pri\`eres, qu'elle aille en paradis
W:
W:Trois ou quatre jours apr\`es, son p\`ere s'y prom\`ene
W:Ouvrez, ouvrez la porte, mon p\`ere si vous m'aimez!
W:trois jours j'ai fait la morte, pour mon honneur garder

